icons/bhi_check-o.svg

<svg xmlns="http://www.w3.org/2000/svg" viewBox="0 0 512 512" enable-background="new 0 0 512 512"><g fill="#010101"><path d="M135.7 184.5l-39.7 39.7 127.8 127.8 283.8-283.9-39.7-39.7-244.1 244.1zM448 448h-384v-384h276.7v-64h-283.9c-31.2 0-56.8 25.5-56.8 56.8v398.5c0 31.1 25.6 56.7 56.8 56.7h398.5c31.2 0 56.8-25.6 56.8-56.8v-227.1h-64l-.1 219.9z"/></g></svg>

<?xml version="1.0" encoding="utf-8"?>
<!-- Generator: Adobe Illustrator 19.2.0, SVG Export Plug-In . SVG Version: 6.00 Build 0)  -->
<svg version="1.1" id="Layer_1" xmlns="http://www.w3.org/2000/svg" xmlns:xlink="http://www.w3.org/1999/xlink" x="0px" y="0px"
	 viewBox="0 0 512 512" enable-background="new 0 0 512 512" xml:space="preserve">
<g id="check-box-outline_1_">
	<polygon fill="#010101" points="135.7,184.5 96,224.2 223.8,352 507.6,68.1 467.9,28.4 223.8,272.5 	"/>
	<path fill="#010101" d="M448,448H64V64h276.7V0H56.8C25.6,0,0,25.5,0,56.8v398.5C0,486.4,25.6,512,56.8,512h398.5
		c31.2,0,56.8-25.6,56.8-56.8V228.1h-64L448,448L448,448z"/>
</g>
</svg>
